X: 41554
T: Unicorn, The
R: jig
M: 6/8
K: Dminor
|:E|DCA, CDE|FAd A2G|FED EDC|DFE DCA,|
DCA, CDE|FAd A2G|FED EDC|DFE D2:|
|:A|d2e fed|cdc AGE|FED EDC|DFE DCA,|
[1 d2e fed|cdc AGE|FED EDC|DFE D2:|
[2 DCA, CDE|FAd A2G|FED EDC|DFE D2||

